lib/svgs/team-calculator.svg

<?xml version="1.0" encoding="UTF-8" standalone="no"?>
<svg width="20px" height="20px" viewBox="0 0 20 20" version="1.1" xmlns="http://www.w3.org/2000/svg" xmlns:xlink="http://www.w3.org/1999/xlink">
    <defs></defs>
    <g id="Icons" stroke="none" stroke-width="1" fill="none" fill-rule="evenodd">
        <g id="Web" transform="translate(-193.000000, -2392.000000)" fill="#000000">
            <g id="team/team-calculator" transform="translate(193.000000, 2392.000000)">
                <path d="M17.375,3 L3.625,3 C3.25,3 3,3.25 3,3.625 L3,17.375 C3,17.75 3.25,18 3.625,18 L17.375,18 C17.75,18 18,17.75 18,17.375 L18,3.625 C18,3.25 17.75,3 17.375,3 L17.375,3 L17.375,3 L17.375,3 M9.0625,14.4375 C9.3125,14.6875 9.3125,15.0625 9.0625,15.3125 C8.9375,15.4375 8.8125,15.5 8.625,15.5 C8.4375,15.5 8.3125,15.4375 8.1875,15.3125 L7.375,14.5 L6.5625,15.3125 C6.4375,15.4375 6.3125,15.5 6.125,15.5 C5.9375,15.5 5.8125,15.4375 5.6875,15.3125 C5.4375,15.0625 5.4375,14.6875 5.6875,14.4375 L6.5,13.625 L5.6875,12.8125 C5.4375,12.5625 5.4375,12.1875 5.6875,11.9375 C5.9375,11.6875 6.3125,11.6875 6.5625,11.9375 L7.375,12.75 L8.1875,11.9375 C8.4375,11.6875 8.8125,11.6875 9.0625,11.9375 C9.3125,12.1875 9.3125,12.5625 9.0625,12.8125 L8.25,13.625 L9.0625,14.4375 L9.0625,14.4375 L9.0625,14.4375 L9.0625,14.4375 M14.875,15.5 L12.375,15.5 C12,15.5 11.75,15.25 11.75,14.875 C11.75,14.5 12,14.25 12.375,14.25 L14.875,14.25 C15.25,14.25 15.5,14.5 15.5,14.875 C15.5,15.25 15.25,15.5 14.875,15.5 L14.875,15.5 L14.875,15.5 L14.875,15.5 M14.875,13 L12.375,13 C12,13 11.75,12.75 11.75,12.375 C11.75,12 12,11.75 12.375,11.75 L14.875,11.75 C15.25,11.75 15.5,12 15.5,12.375 C15.5,12.75 15.25,13 14.875,13 L14.875,13 L14.875,13 L14.875,13 M8.625,8 L8,8 L8,8.625 C8,9 7.75,9.25 7.375,9.25 C7,9.25 6.75,9 6.75,8.625 L6.75,8 L6.125,8 C5.75,8 5.5,7.75 5.5,7.375 C5.5,7 5.75,6.75 6.125,6.75 L6.75,6.75 L6.75,6.125 C6.75,5.75 7,5.5 7.375,5.5 C7.75,5.5 8,5.75 8,6.125 L8,6.75 L8.625,6.75 C9,6.75 9.25,7 9.25,7.375 C9.25,7.75 9,8 8.625,8 L8.625,8 L8.625,8 L8.625,8 M14.875,8 L12.375,8 C12,8 11.75,7.75 11.75,7.375 C11.75,7 12,6.75 12.375,6.75 L14.875,6.75 C15.25,6.75 15.5,7 15.5,7.375 C15.5,7.75 15.25,8 14.875,8 L14.875,8 L14.875,8 L14.875,8" id="Shape"></path>
            </g>
        </g>
    </g>
</svg>

<svg xmlns="http://www.w3.org/2000/svg" viewBox="0 0 20 20">
    <path fill="#000" fill-rule="evenodd" d="M17.375 3H3.625C3.25 3 3 3.25 3 3.625v13.75c0 .375.25.625.625.625h13.75c.375 0 .625-.25.625-.625V3.625C18 3.25 17.75 3 17.375 3M9.062 14.438c.25.25.25.624 0 .874a.567.567 0 0 1-.437.188.567.567 0 0 1-.438-.188l-.812-.812-.813.813a.567.567 0 0 1-.437.187.567.567 0 0 1-.438-.188.604.604 0 0 1 0-.874l.813-.813-.813-.813a.604.604 0 0 1 0-.874c.25-.25.625-.25.875 0l.813.812.813-.813c.25-.25.624-.25.874 0s.25.626 0 .876l-.812.812.813.813m5.812 1.062h-2.5c-.375 0-.625-.25-.625-.625s.25-.625.625-.625h2.5c.375 0 .625.25.625.625s-.25.625-.625.625m0-2.5h-2.5c-.375 0-.625-.25-.625-.625s.25-.625.625-.625h2.5c.375 0 .625.25.625.625s-.25.625-.625.625m-6.25-5H8v.625c0 .375-.25.625-.625.625S6.75 9 6.75 8.625V8h-.625C5.75 8 5.5 7.75 5.5 7.375s.25-.625.625-.625h.625v-.625c0-.375.25-.625.625-.625S8 5.75 8 6.125v.625h.625c.375 0 .625.25.625.625S9 8 8.625 8m6.25 0h-2.5c-.375 0-.625-.25-.625-.625s.25-.625.625-.625h2.5c.375 0 .625.25.625.625S15.25 8 14.875 8"/>
</svg>
